icons/brand/icon_bank-uralskiy_xl_white.svg

<svg xmlns="http://www.w3.org/2000/svg" width="34" height="26" viewBox="0 0 34 26"><g fill="#FFF"><path d="M0 15.066a10.13 10.13 0 0 0 4.25 4.368c-.472-.826-.826-1.771-.826-2.833V5.032C1.889 5.386.708 6.448 0 7.747v7.319z"/><path d="M0 6.566c.826-1.771 2.715-2.951 4.84-2.951h3.423c.944 0 1.771-.826 1.771-1.771C10.034.9 9.208.191 8.263.191H4.84C2.125.192 0 2.317 0 5.032v1.534zm9.444 19.242c5.194 0 9.444-4.132 9.444-9.208V3.615h5.666c2.479 0 4.958 1.062 6.847 2.715-.708-3.541-3.659-6.138-7.319-6.138h-8.735V16.6c0 3.187-2.715 5.784-5.902 5.784-3.777 0-7.555-2.125-9.444-5.666.117 4.958 4.249 9.09 9.443 9.09z"/><path d="M33.879 15.538c-.236-1.889-1.062-3.659-2.833-5.312.354-.944.472-2.125.472-2.715-1.062-.944-2.597-1.889-4.25-2.361.472.59.826 1.653.826 2.479 0 .826-.236 1.535-.708 2.361-.472.708-.472 1.653.354 2.125 1.535.826 2.597 2.361 2.715 4.014a5.965 5.965 0 0 1-.826 3.659c1.889-.945 3.424-2.479 4.25-4.25z"/><path d="M33.997 16.836c-1.18 3.069-4.368 5.43-8.617 5.43h-5.548c-.944 0-1.771.826-1.771 1.771s.826 1.771 1.771 1.771h5.548c4.722 0 8.735-4.014 8.617-8.972z"/></g></svg>

<?xml version="1.0" encoding="UTF-8"?>
<svg width="36px" height="36px" viewBox="0 0 36 36" version="1.1" xmlns="http://www.w3.org/2000/svg" xmlns:xlink="http://www.w3.org/1999/xlink">
    <!-- Generator: Sketch 49.1 (51147) - http://www.bohemiancoding.com/sketch -->
    <title>icon_bank-uralskiy_xl_white</title>
    <desc>Created with Sketch.</desc>
    <defs></defs>
    <g id="page" stroke="none" stroke-width="1" fill="none" fill-rule="evenodd">
        <g id="uralsib" transform="translate(-4.000000, -116.000000)">
            <g id="icon_bank-uralskiy_xl_white" transform="translate(4.000000, 116.000000)">
                <rect id="Rectangle" x="0" y="0" width="36" height="36"></rect>
                <g id="Group" transform="translate(1.000000, 5.000000)" fill="#FFFFFF" fill-rule="nonzero">
                    <path d="M4.25,19.434 C3.778,18.608 3.424,17.664 3.424,16.601 L3.424,5.033 C1.89,5.386 0.708,6.448 0,7.747 L0,15.067 C0.935,16.924 2.42,18.449 4.25,19.434" id="Shape"></path>
                    <path d="M4.84,3.615 L8.263,3.615 C9.207,3.615 10.033,2.789 10.033,1.845 C10.033,0.899 9.208,0.191 8.263,0.191 L4.84,0.191 C2.125,0.193 0,2.318 0,5.033 L0,6.568 C0.826,4.798 2.715,3.616 4.84,3.616 L4.84,3.615 Z M24.08,0.192 L15.346,0.192 L18.888,3.615 L24.554,3.615 C27.034,3.615 29.512,4.678 31.4,6.33 C30.692,2.79 27.74,0.192 24.08,0.192 Z" id="Shape"></path>
                    <path d="M15.346,0.192 L15.346,16.6 C15.346,19.787 12.631,22.384 9.444,22.384 C5.667,22.384 1.889,20.259 0,16.718 C0.118,21.676 4.25,25.808 9.444,25.808 C14.638,25.808 18.888,21.676 18.888,16.6 L18.888,3.615 L15.346,0.192 Z" id="Shape"></path>
                    <path d="M31.046,10.226 C31.4,9.282 31.518,8.101 31.518,7.511 C30.456,6.568 28.921,5.623 27.268,5.151 C27.74,5.741 28.094,6.804 28.094,7.631 C28.094,8.456 27.858,9.165 27.386,9.991 C26.914,10.699 26.914,11.644 27.74,12.116 C29.275,12.942 30.337,14.476 30.455,16.13 C30.58,17.406 30.291,18.69 29.629,19.788 C31.517,18.844 33.051,17.308 33.879,15.538 C33.642,13.648 32.816,11.878 31.045,10.226" id="Shape"></path>
                    <path d="M25.38,22.267 L19.832,22.267 C18.888,22.267 18.062,23.093 18.062,24.037 C18.062,24.982 18.887,25.809 19.832,25.809 L25.38,25.809 C30.102,25.809 34.115,21.794 33.997,16.836 C32.817,19.906 29.63,22.266 25.38,22.266" id="Shape"></path>
                </g>
            </g>
        </g>
    </g>
</svg>
